img/site-icons/footer/youtube.svg

<svg width="1000" height="1000" viewBox="0 0 1000 1000" fill="none" xmlns="http://www.w3.org/2000/svg">
<path d="M503 16C414.333 16 332 38.3333 256 83C182.667 125.667 124.333 183.667 81 257C36.3333 333 14 415.333 14 504C14 592.667 36.3333 675 81 751C124.333 824.333 182.667 882.333 256 925C332 969.667 414.333 992 503 992C591.667 992 674 969.667 750 925C823.333 882.333 881.333 824.333 924 751C968.667 675 991 592.667 991 504C991 415.333 968.667 333 924 257C881.333 183.667 823 125.667 749 83C673 38.3333 591 16 503 16ZM799 585C797.667 611.667 795.333 631.333 792 644C786 665.333 776 681.333 762 692C749.333 702 732.333 707.667 711 709C682.333 711 639.333 712.667 582 714H504C418 714 353.667 712.667 311 710C285 708.667 265.167 704.333 251.5 697C237.833 689.667 228 679.667 222 667C213.333 646.333 208.333 623 207 597C203 544.333 202.333 494.667 205 448V438C206.333 407.333 209 384.333 213 369C214.333 361 217.667 351.333 223 340C233 320.667 251 308 277 302C289.667 299.333 309.333 298 336 298C414.667 294.667 482 293.333 538 294C607.333 295.333 659.333 297 694 299C713.333 299 729 301 741 305C763.667 313.667 778.667 327.667 786 347C792.667 363.667 797 384.667 799 410C803 468 803 526.333 799 585ZM440 400V591C517.333 548.333 575.667 516.333 615 495L440 400Z" fill="#ED9092"/>
</svg>

<?xml version="1.0" encoding="UTF-8" standalone="no"?>
<svg
   viewBox="0 0 1000 1000"
   version="1.1"
   id="svg1260"
   sodipodi:docname="youtube.svg"
   inkscape:version="1.2.2 (b0a8486541, 2022-12-01)"
   xmlns:inkscape="http://www.inkscape.org/namespaces/inkscape"
   xmlns:sodipodi="http://sodipodi.sourceforge.net/DTD/sodipodi-0.dtd"
   xmlns="http://www.w3.org/2000/svg"
   xmlns:svg="http://www.w3.org/2000/svg">
  <defs
     id="defs1264" />
  <sodipodi:namedview
     id="namedview1262"
     pagecolor="#ffffff"
     bordercolor="#666666"
     borderopacity="1.0"
     inkscape:showpageshadow="2"
     inkscape:pageopacity="0.0"
     inkscape:pagecheckerboard="0"
     inkscape:deskcolor="#d1d1d1"
     showgrid="false"
     inkscape:zoom="0.779"
     inkscape:cx="500"
     inkscape:cy="499.35815"
     inkscape:window-width="1920"
     inkscape:window-height="959"
     inkscape:window-x="0"
     inkscape:window-y="48"
     inkscape:window-maximized="1"
     inkscape:current-layer="svg1260" />
  <path
     d="M503 16q-133 0-247 67-110 64-175 174-67 114-67 247 0 133 67 247 65 110 175 174 114 67 247 67 133 0 247-67 110-64 174-174 67-114 67-247 0-133-67-247-64-110-175-174-114-67-246-67z m296 569q-2 40-7 59-9 32-30 48-19 15-51 17-43 3-129 5l-78 0q-129 0-193-4-39-2-59.5-13-20.5-11-29.5-30-13-31-15-70-6-79-2-149l0-10q2-46 8-69 2-12 10-29 15-29 54-38 19-4 59-4 118-5 202-4 104 2 156 5 29 0 47 6 34 13 45 42 10 25 13 63 6 87 0 175z m-359-185q0 0 0 0l0 191q116-64 175-96l-1 0 1 0-175-95z"
     id="path1258"
     style="fill:#8c939a;fill-opacity:1" />
</svg>
